!!!SOCIAL_FUNCTION:	unclassified songs
!!!PDT:	1909
!!!OTL: No_188_Song_of_the_Begging_Dance.krn
!!!REG: Great_Lakes
!!!LANG: Non-Tone
!!!LING_GROUP: Algonquin
**kern	**kern
*staff2	*staff1
*clefF4	*clefF4
*k[f#]	*k[f#]
*M3/8	*M3/8
8GG/	8d\
=1	=1
12GG^/	4d\
12r	.
12GG/	.
8r	8e\
=2||	=2||
*M2/8	*M2/8
4r	4d\
=3	=3
4r	8e\L
.	8d\J
=4||	=4||
*M3/8	*M3/8
4.r	4.B\
=5||	=5||
*M2/8	*M2/8
4r	4A#\
=6||	=6||
*M3/8	*M3/8
4.r	4G\
.	8B\
=7	=7
4.r	4B\
.	8B\
=8||	=8||
*M2/8	*M2/8
4r	4B\
=9	=9
4r	8c\L
.	8B\J
=10||	=10||
*M3/8	*M3/8
4.r	4.G\
=11||	=11||
*M2/8	*M2/8
4r	4F#\
=12||	=12||
*M3/8	*M3/8
4.r	4D\
.	8G\
=13	=13
4.r	4F#\
.	8F#\
=14	=14
4.r	4E\
.	8E\
=15||	=15||
*M2/8	*M2/8
4r	4E\
=16	=16
4r	8F#\L
.	8E\J
=17	=17
4r	[4D\
=18	=18
4r	8D\L]
.	8D\J
=19	=19
4r	4D\
=20||	=20||
*M3/8	*M3/8
4.r	4BB/
.	8D\
=21	=21
4.r	4D\
.	8D\
=22||	=22||
*M2/8	*M2/8
4r	4D\
=23	=23
4r	4E\
=24	=24
4r	4D\
=25	=25
4r	4D\
=26	=26
4r	[4D\
=27	=27
4r	8D\L]
.	8D\J
=28	=28
4r	4D\
==:|!	==:|!
*-	*-
